X: 20851
Q: "Moderato"
M: 6/8
L: 1/8
K: D
f |\
f2f f2f | g2b b2b | a2a g>fe | f3- f2e |\
f2f e2e | d>ed c2^g | a2e d>cB | A3- A2 :|
|: A |\
d2A e2A | f>ef d2e | f2e d>cB | f3 f2F |\
f2(f a2)(a | d')>^c'd' c'2(c' | b2)(a ^g2)g | a3 a2a |\
(a2d') b2g | e3 f2f | g>ab f>ge |[1d3 d2 :|[2 d3 d2z |
b3 g3 | e3 f3 | g2f e>fg | g3 f3 |\
e3 g3 | f3 Hb3 | a>bg f>d'c' | d'3- d'2 |]


